qml/icons/navigation/roundabout-straight-white.svg

<svg id="WORKING_ICONS" data-name="WORKING ICONS" xmlns="http://www.w3.org/2000/svg" width="20" height="20" viewBox="0 0 20 20">
  <title>direction</title>
  <path fill="#ffffff" d="M10,8.2A3.8,3.8,0,1,1,6.2,12,3.80427,3.80427,0,0,1,10,8.2m0,7A3.2,3.2,0,1,0,6.8,12,3.20363,3.20363,0,0,0,10,15.2M10,8a4,4,0,1,0,4,4,4.00458,4.00458,0,0,0-4-4h0Zm0,7a3,3,0,1,1,3-3,3.00328,3.00328,0,0,1-3,3h0Zm2.83057-5.82666A3.97135,3.97135,0,0,0,10.5,8.03076V5.00415a0.17881,0.17881,0,0,1,.27124-0.18872L12.24713,5.4873a0.19329,0.19329,0,0,0,.20471-0.31177L10,2.00415,7.54816,5.17554a0.1933,0.1933,0,0,0,.20471.31177l1.476-.67187A0.17879,0.17879,0,0,1,9.5,5.00415V9H10a3,3,0,1,1,0,6H9.5v3h1V15.96924A4.00076,4.00076,0,0,0,12.83057,9.17334Z"/>
</svg>

<svg data-name="WORKING ICONS" xmlns="http://www.w3.org/2000/svg" width="20" height="20"><path fill="#fff" d="M10 8.2A3.8 3.8 0 1 1 6.2 12 3.804 3.804 0 0 1 10 8.2m0 7A3.2 3.2 0 1 0 6.8 12a3.204 3.204 0 0 0 3.2 3.2M10 8a4 4 0 1 0 4 4 4.005 4.005 0 0 0-4-4Zm0 7a3 3 0 1 1 3-3 3.003 3.003 0 0 1-3 3Zm2.83-5.827a3.971 3.971 0 0 0-2.33-1.142V5.004a.179.179 0 0 1 .271-.189l1.476.672a.193.193 0 0 0 .205-.311L10 2.004 7.548 5.176a.193.193 0 0 0 .205.311l1.476-.672a.179.179 0 0 1 .271.19V9h.5a3 3 0 1 1 0 6h-.5v3h1v-2.03a4 4 0 0 0 2.33-6.797Z"/></svg>
